clock-alert-outline.svg

<svg fill="currentColor" viewBox="0 0 24 24"><path d="M11 7v6l5.2 3.1.8-1.2-4.5-2.7V7zm9 5v6h2v-6zm0 8v2h2v-2zm-2 0c-1.7 1.3-3.7 2-6 2-5.5 0-10-4.5-10-10S6.5 2 12 2c4.8 0 8.9 3.4 9.8 8h-2.1c-.9-3.4-4-6-7.7-6-4.4 0-8 3.6-8 8s3.6 8 8 8c2.4 0 4.5-1.1 6-2.7z"/></svg>

<svg  viewBox="0 0 24 24" fill="currentColor"><path  d="M11 7V13L16.2 16.1L17 14.9L12.5 12.2V7H11M20 12V18H22V12H20M20 20V22H22V20H20M18 20C16.3 21.3 14.3 22 12 22C6.5 22 2 17.5 2 12S6.5 2 12 2C16.8 2 20.9 5.4 21.8 10H19.7C18.8 6.6 15.7 4 12 4C7.6 4 4 7.6 4 12S7.6 20 12 20C14.4 20 16.5 18.9 18 17.3V20Z"/></svg>
